X:439
T:Miss Admiral Gordon's strathspey
R:Strathspey
O:Scotland
C:William Marshall
B:Fiddle music of Scotland
B:Marshall's Vol 1 p16
D:Jean Redpath something or other...
Z:Transcription, chords:Mike Long
M:4/4
L:1/8
K:G
D|\
"G"G>GG>G G>D "C"Ge|"G"d>BA>G "C"E3 D/E/|\
"G"G>GG>G G>D "C"Ge|"G"d>e gB "D"d3e|
"G"d>e"C"g>B "G"d>B AG|"Am"A>B c/B/A/G/ "C"E3 D/E/|\
"G"G>GG>G G>D "C"Ge|"G"d>B"D"A>B "G"G3 D/C/|]
"G"B,>DG>D "C"ED "G"G>A|"G"B>d c/B/A3/4G/4 "C"E3 D/C/|\
"G"B,>DG>D "C"ED "G"G>A|"G"B>c d/e/f/g/ "D"d>e fe/f/|
"G"g>f ed "Em"ed c>B|"Am"A>B c/B/A/G/ "C"E3 D/E/|\
"G"G>GG>G GD"C"Ge|"G"d>B"D"A>B "G"G4|]
